X: 10663
T: ALDRIDGE'S HORNPIPE
%R: hornpipe, reel
B: W. Hamilton "Universal Tune-Book" Vol. 1 Glasgow 1844 p.66 #3
S: http://imslp.org/wiki/Hamilton's_Universal_Tune-Book_(Various)
Z: 2016 John Chambers <jc:trillian.mit.edu>
M: C
L: 1/8
K: Bb
% - - - - - - - - - - - - - - - - - - - - - - - - -
dc |\
BABF DFBd | cBAG FAcd | edcB AGed | cBAG Fedc |\
BABF DFBd | cBAG FAce | dfdB cecA | B2B2B2 :|
|: de |\
fddB Bddf | geec ceeg | fddB gecB | ABGA Fedc |\
BABF DFBd | cBAG FAce | dfdB cecA | B2B2B2 :|
% - - - - - - - - - - - - - - - - - - - - - - - - -

%%sep 1 1 500
%%sep 1 1 500

